public/close.svg

<svg fill="none" height="40" viewBox="0 0 40 40" width="40" xmlns="http://www.w3.org/2000/svg"><rect fill="#f7f7f9" height="40" rx="20" width="40"/><path d="m25.6252 12-5.6259 5.6245-5.6245-5.6245-1.8748 1.8748 5.6245 5.6245-5.6245 5.6245 1.8748 1.8749 5.6245-5.6245 5.6259 5.6245 1.8748-1.8749-5.6245-5.6245 5.6245-5.6245z" fill="#000"/></svg>

<svg width="40" height="40" viewBox="0 0 40 40" fill="none" xmlns="http://www.w3.org/2000/svg">
<rect width="40" height="40" rx="20" fill="#F7F7F9"/>
<path d="M25.6252 12L19.9993 17.6245L14.3748 12L12.5 13.8748L18.1245 19.4993L12.5 25.1238L14.3748 26.9987L19.9993 21.3742L25.6252 26.9987L27.5 25.1238L21.8755 19.4993L27.5 13.8748L25.6252 12Z" fill="black"/>
</svg>
